X: 236
T:Responsum acceperat Simeon / Cum ergo / Nunc dimittis
N: Derived from Jos2011-Responsum_acceperat_Simeon.krn
C: Josquin des Prez
%%abc-version 2.0
%%abcx-abcm2ps-target-version 5.9.1 (29 Sep 2008)
%%abc-creator hum2abc beta
%%abcx-conversion-date 2019/02/12 16:15:50
%%abc-edited-by Jesse Rodin
%%abc-edited-by Will Watson 14/09/2011
%%abcx-initial-encoding-date 2011/09/14/
%%humdrum-veritas 475593918
%%humdrum-veritas-data 828382682
%%linebreak <none>
%%barnumbers 0
L: 1/4
M: 2/1
Q: 1/2=120
V: 1 clef=treble
V: 2 clef=treble-8
V: 3 clef=treble-8
V: 4 clef=treble-8
V: 5 clef=bass
V: 6 clef=bass
K: F
[V:1] z8 | 
[V:2] z8 | 
[V:3] z8 | 
[V:4] z8 | 
[V:5] D,4F,4 | 
[V:6] z8 | 
[V:1] z8 | 
[V:2] z8 | 
[V:3] z8 | 
[V:4] z8 | 
[V:5] G,4F,4 | 
[V:6] G,,4B,,4 | 
[V:1] z8 | 
[V:2] G4B4 | 
[V:3] z8 | 
[V:4] z8 | 
[V:5] z2E,2F,3G, | 
[V:6] C,4B,,4 | 
[V:1] z4D4 | 
[V:2] c4B4 | 
[V:3] z8 | 
[V:4] z8 | 
[V:5] A,3G,F,E,G,2 | 
[V:6] z2A,,2B,,3C, | 
[V:1] F4G4 | 
[V:2] z2A2B3c | 
[V:3] z8 | 
[V:4] z8 | 
[V:5] F,2D,2z2G,2 | 
[V:6] D,2F,2_E,3D, | 
[V:1] F8 | 
[V:2] d2B4A2 | 
[V:3] z8 | 
[V:4] D4F4 | 
[V:5] B,4C4 | 
[V:6] B,,4z4 | 
[V:1] z2E2F3G | 
[V:2] B2c2A2d2 | 
[V:3] z4A4 | 
[V:4] G4F4 | 
[V:5] B,2G,2D,E,F,D, | 
[V:6] z2C,2D,3C, | 
[V:1] A2A2d2B2 | 
[V:2] c2A2B4 | 
[V:3] c4d4 | 
[V:4] z2E2F3G | 
[V:5] E,2E,2D,2D,2 | 
[V:6] A,,2C,2B,,3A,, | 
[V:1] c2BAB3c | 
[V:2] A4z2D2 | 
[V:3] c4z2B2 | 
[V:4] ABc3BG2 | 
[V:5] F,4G,4 | 
[V:6] F,,2A,,2G,,4 | 
[V:1] A2c2c4- | 
[V:2] F2C3DEF | 
[V:3] c3defg2- | 
[V:4] A4G4 | 
[V:5] C,2F,2E,3D, | 
[V:6] F,,G,,A,,B,,C,3D, | 
[V:1] c2F2c4 | 
[V:2] GAB4A2 | 
[V:3] gfd2e4 | 
[V:4] z2F2G2E2 | 
[V:5] C,2D,2G,2A,2 | 
[V:6] E,2D,2C,4 | 
[V:1] d3cBAG2- | 
[V:2] B3cd2G2- | 
[V:3] d4z2c2 | 
[V:4] F6E2 | 
[V:5] D,2F,3D,E,2 | 
[V:6] B,,3A,,B,,2C,2 | 
[V:1] GFD2E2F2 | 
[V:2] GAB2G2AB | 
[V:3] d2B2c4- | 
[V:4] D4C2F2- | 
[V:5] G,3F,E,2A,2- | 
[V:6] G,,4z2F,,2 | 
[V:1] C2GFEDC2 | 
[V:2] cAd2c2C2 | 
[V:3] c2B2A4 | 
[V:4] F2G3FF2- | 
[V:5] A,2B,2C4 | 
[V:6] A,,2G,,2A,,3B,, | 
[V:1] c3BAGB2- | 
[V:2] z2C2F2D2 | 
[V:3] G2c4d2- | 
[V:4] F2E2F2F2 | 
[V:5] z2G,2A,2F,2 | 
[V:6] C,4z2B,,2- | 
[V:1] BAG3FF2- | 
[V:2] G3ABcd2 | 
[V:3] dcc4B2 | 
[V:4] D2E2F4 | 
[V:5] G,2E,2D,E,F,D, | 
[V:6] B,,2C,2D,4 | 
[V:1] F2E2F4- | 
[V:2] G2c3BB2- | 
[V:3] c2c2A2B2 | 
[V:4] G4F4- | 
[V:5] E,2C,2D,4 | 
[V:6] C,4z4 | 
[V:1] F4z2F2 | 
[V:2] B2A2B2F2 | 
[V:3] c4d4 | 
[V:4] F4z4 | 
[V:5] C,2F,2D,3E, | 
[V:6] F,,4B,,2B,,2 | 
[V:1] F3FF2F2 | 
[V:2] A3Bc2A2 | 
[V:3] c8 | 
[V:4] F4A3B | 
[V:5] F,2A,3B,C2- | 
[V:6] F,,4F,,4 | 
[V:1] E3FG4 | 
[V:2] G2E3FG2 | 
[V:3] z4c4 | 
[V:4] c2A2G4 | 
[V:5] C2C,2E,3F, | 
[V:6] C,4z2C,2 | 
[V:1] z2c2c2c2 | 
[V:2] C2_E3FG_E | 
[V:3] _e3fg2_e2 | 
[V:4] z2G2G3A | 
[V:5] G,4C,4 | 
[V:6] C,3D,_E,2C,2 | 
[V:1] d2B4AG | 
[V:2] F2B2B3B | 
[V:3] d4z2d2 | 
[V:4] B2G2F4- | 
[V:5] z2D,2D,3D, | 
[V:6] B,,8 | 
[V:1] F4z2A2 | 
[V:2] B2B2A4- | 
[V:3] d3ef2d2 | 
[V:4] F8 | 
[V:5] D,E,F,G,A,2F,G, | 
[V:6] z2D,2D,3E, | 
[V:1] A2A2G3F | 
[V:2] A2GFG4 | 
[V:3] c8- | 
[V:4] z2F4E2 | 
[V:5] A,B,C4G,2- | 
[V:6] F,2F,2C,3D, | 
[V:1] ECF4E2 | 
[V:2] C2c3BG2 | 
[V:3] c4z2c2- | 
[V:4] G2A2G4 | 
[V:5] G,2F,2G,2C,2 | 
[V:6] E,2F,2C,4 | 
[V:1] F4z4 | 
[V:2] A2d4cB | 
[V:3] c2B2d2_e2 | 
[V:4] F4z4 | 
[V:5] z4F,4- | 
[V:6] F,,2B,,4C,2 | 
[V:1] F6G2 | 
[V:2] AFB2A2c2- | 
[V:3] d4c4 | 
[V:4] z8 | 
[V:5] F,2G,2A,3B, | 
[V:6] D,3E,F,4 | 
[V:1] A3Bc4- | 
[V:2] cBAGF4 | 
[V:3] z8 | 
[V:4] F4A4 | 
[V:5] C6B,2 | 
[V:6] z2F,,4G,,2 | 
[V:1] c2BAG4 | 
[V:2] C3DEFG2- | 
[V:3] z4c4 | 
[V:4] c6BA | 
[V:5] A,2G,F,E,4 | 
[V:6] A,,3B,,C,4 | 
[V:1] z2c2B2c2- | 
[V:2] GEA2G4 | 
[V:3] e4g4- | 
[V:4] B2c2d2c2 | 
[V:5] z8 | 
[V:6] z4z2C,2- | 
[V:1] cBAGF2E2 | 
[V:2] z2A3Bc2 | 
[V:3] g2fef2g2 | 
[V:4] c3B/c/d2c2- | 
[V:5] z8 | 
[V:6] C,2F,2D,2E,2 | 
[V:1] D4E3D/C/ | 
[V:2] A2B2G2c2- | 
[V:3] a2g2g3f/g/ | 
[V:4] c2=B2c4 | 
[V:5] z8 | 
[V:6] F,2G,2C,2C,2 | 
[V:1] E2D2z2A2 | 
[V:2] c2d2e2d2- | 
[V:3] a2g4f2 | 
[V:4] z4A4 | 
[V:5] z8 | 
[V:6] A,,2B,,2C,2D,2 | 
[V:1] c3/B/c/B/A/G/(3F2D2F2 | 
[V:2] d2c2d2A2- | 
[V:3] g4z4 | 
[V:4] G4A3B | 
[V:5] C,4F,3G, | 
[V:6] _E,4D,2C,B,, | 
[V:1] E2A3G/F/G2 | 
[V:2] AG/F/ECG2d2 | 
[V:3] e4d4 | 
[V:4] c2A2B4 | 
[V:5] A,B,C2D2G,2 | 
[V:6] A,,4z4 | 
[V:1] A4z4 | 
[V:2] c2A2d2cB | 
[V:3] e3fg2e2 | 
[V:4] A4z4 | 
[V:5] C4B,2A,G, | 
[V:6] z2A,,2B,,2C,2 | 
[V:1] z4z2E2 | 
[V:2] A2D2E2G2 | 
[V:3] f4e4 | 
[V:4] z2A2c2c2 | 
[V:5] F,4G,4 | 
[V:6] D,4C,4 | 
[V:1] G2A3BcA | 
[V:2] C2F3GA2 | 
[V:3] z4z2e2 | 
[V:4] c8 | 
[V:5] E,2F,2A,4 | 
[V:6] z8 | 
[V:1] BAGFE4 | 
[V:2] dcBAG3F | 
[V:3] g2g2g4- | 
[V:4] B4c4 | 
[V:5] G,4C,4 | 
[V:6] z4z2C,2- | 
[V:1] C8 | 
[V:2] EDC2z2F2 | 
[V:3] g4f4 | 
[V:4] z4A4 | 
[V:5] z8 | 
[V:6] C,D,E,2F,2A,2 | 
[V:1] D4E3F | 
[V:2] BAGFE2C2 | 
[V:3] g4z4 | 
[V:4] B4c4- | 
[V:5] z2G,4E,2- | 
[V:6] G,4C,4 | 
[V:1] G4z4 | 
[V:2] G4F2F2 | 
[V:3] e4f4 | 
[V:4] c2B2A4 | 
[V:5] E,F,G,2D,2D2- | 
[V:6] C,4D,4 | 
[V:1] z8 | 
[V:2] B2c2d4 | 
[V:3] g6f2 | 
[V:4] G4G2A2- | 
[V:5] D2C2B,CDB, | 
[V:6] E,6D,2 | 
[V:1] z4A4 | 
[V:2] e2c2fedc | 
[V:3] e4d4 | 
[V:4] A2G4^F2 | 
[V:5] C3B,A,G,A,2 | 
[V:6] C,4D,4 | 
[V:1] B3AGED2 | 
[V:2] BAGFE2A2 | 
[V:3] d2e4d2- | 
[V:4] G4z2F2 | 
[V:5] G,4C,2D,2 | 
[V:6] G,,4z4 | 
[V:1] G2F2DEFG | 
[V:2] G2F4B2 | 
[V:3] d2c2d4 | 
[V:4] G2A2B3A | 
[V:5] E,C,F,2B,,C,D,E, | 
[V:6] z8 | 
[V:1] A4z2c2 | 
[V:2] A2c2B2G2 | 
[V:3] z2c2d2e2 | 
[V:4] F2A2G4 | 
[V:5] F,2E,2D,2C,2 | 
[V:6] z2A,,2B,,2C,2 | 
[V:1] B2A4G2- | 
[V:2] d3cA2c2 | 
[V:3] f3ec2e2 | 
[V:4] F4z4 | 
[V:5] F,2A,3G,E,2 | 
[V:6] D,3E,F,2C,2 | 
[V:1] G2F4E2 | 
[V:2] A2B2G4 | 
[V:3] d4c4 | 
[V:4] z8 | 
[V:5] F,2D,2E,3F,/G,/ | 
[V:6] D,2B,,2C,4 | 
[V:1] F8 | 
[V:2] F4z2A2 | 
[V:3] z8 | 
[V:4] z4z2F2 | 
[V:5] A,G,F,E,D,4 | 
[V:6] F,,2B,,C,D,E,F,2- | 
[V:1] z8 | 
[V:2] c2c2c2FG | 
[V:3] z8 | 
[V:4] G2G2A3B | 
[V:5] C,4z2C2- | 
[V:6] F,2E,2F,4 | 
[V:1] z2E2G2G2 | 
[V:2] ABc3B/A/B2 | 
[V:3] z2c2d2d2 | 
[V:4] c4G4 | 
[V:5] C2A,2B,2G,2 | 
[V:6] z8 | 
[V:1] G2CDEFG2- | 
[V:2] c2A2G4 | 
[V:3] e3fg4 | 
[V:4] z8 | 
[V:5] C,2C4G,2 | 
[V:6] z4C,4 | 
[V:1] GF/E/F2G4 | 
[V:2] z4z2c2- | 
[V:3] d4z4 | 
[V:4] z8 | 
[V:5] B,2A,2G,F,E,D, | 
[V:6] D,2D,2E,3F, | 
[V:1] z2G4F2 | 
[V:2] c2G2B2A2 | 
[V:3] z8 | 
[V:4] z4F4 | 
[V:5] C,4z2A,2 | 
[V:6] G,4D,3C, | 
[V:1] G2A2B4 | 
[V:2] G2c2B3A/G/ | 
[V:3] z8 | 
[V:4] D2F4E2 | 
[V:5] B,2C2D2G,2 | 
[V:6] B,,2A,,2G,,4 | 
[V:1] A4z4 | 
[V:2] c2F2c2A2- | 
[V:3] c4A2c2- | 
[V:4] F2EDC2E2 | 
[V:5] A,3G,/F,/E,D,C,2 | 
[V:6] F,,3G,,A,,B,,A,,2 | 
[V:1] z2D2E3F | 
[V:2] A2GFEFGA | 
[V:3] c2B2c2BA | 
[V:4] D4C4 | 
[V:5] z2G,4E,2- | 
[V:6] F,,2G,,2C,4 | 
[V:1] G2D2F2CD | 
[V:2] B3AF2c2- | 
[V:3] G2B2A4 | 
[V:4] z4F4 | 
[V:5] E,F,G,2A,2F,2 | 
[V:6] z4F,,4 | 
[V:1] EFGAB2cB | 
[V:2] cde2d2c2- | 
[V:3] G4z4 | 
[V:4] E3FG2A2- | 
[V:5] G,2C,2D,2E,2 | 
[V:6] C,4B,,2A,,2 | 
[V:1] AGFED4 | 
[V:2] cBA2z2d2- | 
[V:3] c4B3c | 
[V:4] ABcABGB2- | 
[V:5] F,2C,2G,4 | 
[V:6] F,,4G,,3A,, | 
[V:1] z4G4 | 
[V:2] d2c2c3B | 
[V:3] dce3fge | 
[V:4] B2A2G4 | 
[V:5] F,2E,2C,2C2- | 
[V:6] B,,2C,3D,E,C, | 
[V:1] A2F3GA2 | 
[V:2] (3A2B2c2d2A2 | 
[V:3] fdf4e2 | 
[V:4] z4F4 | 
[V:5] C2A,2B,2C2 | 
[V:6] F,3E,D,2C,2 | 
[V:1] B4c4- | 
[V:2] z2d2cA2G/F/ | 
[V:3] d4z4 | 
[V:4] G4A4 | 
[V:5] D2D,2F,2E,2- | 
[V:6] B,,4A,,3B,, | 
[V:1] c4z4 | 
[V:2] E2C2F2D2 | 
[V:3] c4d4 | 
[V:4] G4F2F2- | 
[V:5] E,F,G,2A,2B,2- | 
[V:6] C,2E,2D,2B,,2 | 
[V:1] c4F2G2 | 
[V:2] C2c2d2B2 | 
[V:3] e4d4 | 
[V:4] F2E2F4 | 
[V:5] B,2A,2B,4 | 
[V:6] C,4B,,3A,, | 
[V:1] A4B4 | 
[V:2] c2f3e/d/e2 | 
[V:3] c2c4B2 | 
[V:4] z8 | 
[V:5] A,2F,2G,4 | 
[V:6] F,,4z4 | 
[V:1] A8- | 
[V:2] f4F3G | 
[V:3] c4z4 | 
[V:4] z8 | 
[V:5] F,4C4- | 
[V:6] C6B,2 | 
[V:1] A8 | 
[V:2] A2B2c3B/c/ | 
[V:3] z8 | 
[V:4] F8 | 
[V:5] C2B,2A,2G,2 | 
[V:6] A,3G,F,2E,2 | 
[V:1] A4c4- | 
[V:2] defde2A2- | 
[V:3] z4c4- | 
[V:4] A8 | 
[V:5] F,4E,2F,2 | 
[V:6] D,3C,A,,2F,,2- | 
[V:1] c4c4 | 
[V:2] A2c3BG2- | 
[V:3] c4e4- | 
[V:4] c8- | 
[V:5] C,2F,2E,2C,2 | 
[V:6] F,,G,,A,,B,,C,4- | 
[V:1] G4c4- | 
[V:2] G2G2G3A | 
[V:3] e4g4- | 
[V:4] c8 | 
[V:5] E,4E,4 | 
[V:6] C,4C,4 | 
[V:1] c2BABAGF | 
[V:2] B3cd2B2 | 
[V:3] g8- | 
[V:4] d8 | 
[V:5] D,4G,4 | 
[V:6] G,,4G,,4 | 
[V:1] EDCB,A,3B, | 
[V:2] c4z2c2- | 
[V:3] g4a4- | 
[V:4] z4c4 | 
[V:5] z2C,4F,2- | 
[V:6] C,4F,,3G,, | 
[V:1] CDE2(3F2D2F2 | 
[V:2] cBAGA2B2 | 
[V:3] a4z4 | 
[V:4] c4d4 | 
[V:5] F,2E,2D,4 | 
[V:6] A,,B,,C,4B,,2 | 
[V:1] E6D2 | 
[V:2] G2c4B2 | 
[V:3] g4g4 | 
[V:4] c4z4 | 
[V:5] E,3F,G,2G,2 | 
[V:6] C,3D,E,F,G,2- | 
[V:1] E2F2D4 | 
[V:2] A2c2G2d2 | 
[V:3] a4g4 | 
[V:4] c4B4 | 
[V:5] C2A,2B,3G, | 
[V:6] G,2F,2G,4 | 
[V:1] C3DEFG2 | 
[V:2] e3dc2B2 | 
[V:3] z4g4 | 
[V:4] c4z4 | 
[V:5] G,4z4 | 
[V:6] C,4z4 | 
[V:1] A2c4B2 | 
[V:2] c4d4 | 
[V:3] f4g4 | 
[V:4] A4G4 | 
[V:5] z8 | 
[V:6] z8 | 
[V:1] c2A4A2 | 
[V:2] c2F2c3B | 
[V:3] z4e4 | 
[V:4] A4z4 | 
[V:5] z2A,3G,E,2 | 
[V:6] z2D,4C,2 | 
[V:1] A4A4- | 
[V:2] AGA4GF | 
[V:3] d4e4 | 
[V:4] A4c4 | 
[V:5] F,4E,2A,2 | 
[V:6] D,4A,,4 | 
[V:1] A2GFE3D | 
[V:2] E4E2G2- | 
[V:3] z4e4 | 
[V:4] A4G4- | 
[V:5] C4C4 | 
[V:6] A,,4C,4- | 
[V:1] C2G2c2c2 | 
[V:2] G2G2CDEC | 
[V:3] g4e4 | 
[V:4] G4G4 | 
[V:5] G,2E,2G,4 | 
[V:6] C,4C,4 | 
[V:1] B6A2 | 
[V:2] D4z4 | 
[V:3] d8 | 
[V:4] B3AG2F2 | 
[V:5] G,4D,4 | 
[V:6] G,,3A,,B,,C,D,2 | 
[V:1] B4A4 | 
[V:2] z2G2AFA2 | 
[V:3] d4e3d | 
[V:4] G4F4 | 
[V:5] z2D,4F,2- | 
[V:6] G,,4D,3C, | 
[V:1] z2F3EFG | 
[V:2] B2c2B4 | 
[V:3] d2c2d4 | 
[V:4] z8 | 
[V:5] F,G,A,2D,3E, | 
[V:6] B,,2A,,2B,,4 | 
[V:1] A2F3E/D/E2 | 
[V:2] A4z2c2 | 
[V:3] c4z4 | 
[V:4] F4G4 | 
[V:5] F,4z2C,2 | 
[V:6] F,,4C,4 | 
[V:1] F4z4 | 
[V:2] A2B2c2GA | 
[V:3] z4c4 | 
[V:4] F4G4 | 
[V:5] F,2D,2E,4 | 
[V:6] D,4C,4 | 
[V:1] z8 | 
[V:2] BGB2G2A2 | 
[V:3] d4c4 | 
[V:4] F4E2F2- | 
[V:5] D,4z4 | 
[V:6] z2B,,2C,2A,,2 | 
[V:1] z4z2A2 | 
[V:2] D4E2F2 | 
[V:3] d4c4 | 
[V:4] F2G2A4 | 
[V:5] z4z2A,2 | 
[V:6] B,,4A,,4 | 
[V:1] B2A4GF | 
[V:2] G2A2F4 | 
[V:3] B2c4d2 | 
[V:4] z4A4 | 
[V:5] G,2F,4E,D, | 
[V:6] z8 | 
[V:1] E2G4G2 | 
[V:2] G4c4- | 
[V:3] e4z4 | 
[V:4] c6G2 | 
[V:5] C,4E,4- | 
[V:6] z4C,4- | 
[V:1] G4c4 | 
[V:2] c2c2c2c2 | 
[V:3] e4g4- | 
[V:4] G4z4 | 
[V:5] E,2E,2E,F,G,A, | 
[V:6] C,2C,2C,3B,, | 
[V:1] B4z4 | 
[V:2] d4z2d2- | 
[V:3] g2d2d4 | 
[V:4] z2G2F2D2 | 
[V:5] B,4A,2G,2 | 
[V:6] G,,A,,B,,C,D,2B,,2 | 
[V:1] z2A2F2D2 | 
[V:2] d2c2d2B2 | 
[V:3] z4z2d2 | 
[V:4] E4D4 | 
[V:5] A,4z4 | 
[V:6] A,,4z2B,,2 | 
[V:1] E2F3EFG | 
[V:2] c4d4 | 
[V:3] c2A2B4 | 
[V:4] z8 | 
[V:5] z4D,4 | 
[V:6] A,,2F,,2B,,3A,, | 
[V:1] A2F2A4- | 
[V:2] c4F4 | 
[V:3] A4z4 | 
[V:4] C4D2F2- | 
[V:5] F,3E,F,G,A,2- | 
[V:6] F,,4z2F,,2- | 
[V:1] A2GFE2c2- | 
[V:2] A4G2E2- | 
[V:3] z4G4 | 
[V:4] F2EDE4 | 
[V:5] A,B,C4C,2- | 
[V:6] F,,G,,A,,B,,C,3B,, | 
[V:1] c2A2c4 | 
[V:2] E2A3GEF | 
[V:3] A2c4BA | 
[V:4] z8 | 
[V:5] C,D,/E,/F,2E,2C,2 | 
[V:6] A,,2F,,2A,,4 | 
[V:1] B3AG4- | 
[V:2] GABcd2G2 | 
[V:3] B4z4 | 
[V:4] G3AB2c2 | 
[V:5] D,2G,3F,E,D, | 
[V:6] G,,4z2C,2- | 
[V:1] G2FED4- | 
[V:2] c2G3ABc | 
[V:3] z4d3e | 
[V:4] G2c4B2 | 
[V:5] E,2C,2z2G,2 | 
[V:6] C,D,E,F,G,3F, | 
[V:1] D8- | 
[V:2] d4z2DE | 
[V:3] f2g2d2g2- | 
[V:4] A2G2B4 | 
[V:5] A,2B,3CD2 | 
[V:6] D,2G,,3A,,B,,C, | 
[V:1] D4z4 | 
[V:2] FGABc2B2 | 
[V:3] g2f2e2d2 | 
[V:4] A6F2 | 
[V:5] D,E,F,G,A,2D,2 | 
[V:6] D,3C,A,,2B,,2 | 
[V:1] C3DEFG2 | 
[V:2] A4G4- | 
[V:3] f4e4- | 
[V:4] F4z4 | 
[V:5] A,B,C4C,2- | 
[V:6] F,,G,,A,,B,,C,4- | 
[V:1] D2G3FF2- | 
[V:2] G4z4 | 
[V:3] e2c2c4 | 
[V:4] G4E2F2 | 
[V:5] C,D,E,F,G,2A,2 | 
[V:6] C,8- | 
[V:1] F2E2F4- | 
[V:2] c4A2d2- | 
[V:3] z4d4 | 
[V:4] G4F4- | 
[V:5] G,3F,D,2B,2- | 
[V:6] C,4z2B,,2- | 
[V:1] F8- | 
[V:2] d2c2B4 | 
[V:3] B2c2d4 | 
[V:4] F8- | 
[V:5] B,G,A,2D,3E, | 
[V:6] B,,2A,,2B,,2B,,2 | 
[V:1] F8 ||  
[V:2] A8 ||  
[V:3] c8 ||  
[V:4] F8 ||  
[V:5] F,4C,4 ||  
[V:6] F,,8 ||  
[V:1]  [K:F] [K:clef=treble][M:2/1]z8 | 
[V:2]  [K:F] [K:clef=treble-8][M:2/1]z8 | 
[V:3]  [K:F] [K:clef=treble-8][M:2/1]z8 | 
[V:4]  [K:F] [K:clef=treble-8][M:2/1]F8 | 
[V:5]  [K:F] [K:clef=bass][M:2/1]z8 | 
[V:6]  [K:F] [K:clef=bass][M:2/1]z8 | 
[V:1] z8 | 
[V:2] z8 | 
[V:3] z8 | 
[V:4] F4G4 | 
[V:5] z8 | 
[V:6] z8 | 
[V:1] z8 | 
[V:2] z8 | 
[V:3] z8 | 
[V:4] B4B4- | 
[V:5] z8 | 
[V:6] B,,8 | 
[V:1] z8 | 
[V:2] z8 | 
[V:3] z8 | 
[V:4] B2AGA2G2- | 
[V:5] z8 | 
[V:6] B,,4C,4 | 
[V:1] z8 | 
[V:2] z8 | 
[V:3] z8 | 
[V:4] G2C2G3A | 
[V:5] z8 | 
[V:6] _E,4E,4- | 
[V:1] z8 | 
[V:2] z8 | 
[V:3] z8 | 
[V:4] BGc4=B2 | 
[V:5] z8 | 
[V:6] E,2D,C,D,4 | 
[V:1] z8 | 
[V:2] z8 | 
[V:3] z8 | 
[V:4] c6BA | 
[V:5] C,8 | 
[V:6] C,3D,E,C,F,2- | 
[V:1] z8 | 
[V:2] z8 | 
[V:3] z8 | 
[V:4] G2A2B4 | 
[V:5] C,4D,4 | 
[V:6] F,2E,2F,4 | 
[V:1] z8 | 
[V:2] z8 | 
[V:3] z8 | 
[V:4] A4z2A2- | 
[V:5] F,4F,4- | 
[V:6] F,,8 | 
[V:1] z8 | 
[V:2] z8 | 
[V:3] z8 | 
[V:4] A2A2c4 | 
[V:5] F,2E,D,E,4 | 
[V:6] z2A,,4A,,2 | 
[V:1] z8 | 
[V:2] z8 | 
[V:3] z8 | 
[V:4] d4c4 | 
[V:5] D,4z2E,2- | 
[V:6] B,,4A,,2C,2- | 
[V:1] z8 | 
[V:2] z8 | 
[V:3] z8 | 
[V:4] z2C2D2E2 | 
[V:5] E,2E,2G,4 | 
[V:6] C,B,,A,,2G,,4 | 
[V:1] z8 | 
[V:2] z8 | 
[V:3] z8 | 
[V:4] F2EDE4 | 
[V:5] A,4G,2C,2- | 
[V:6] F,,4z4 | 
[V:1] z8 | 
[V:2] z8 | 
[V:3] z8 | 
[V:4] z2C3DEF | 
[V:5] C,D,E,F,E,2A,2- | 
[V:6] A,,6A,,2 | 
[V:1] z8 | 
[V:2] z8 | 
[V:3] z8 | 
[V:4] ECc3B/A/B2 | 
[V:5] A,G,G,4F,2 | 
[V:6] C,4D,4 | 
[V:1] z8 | 
[V:2] z8 | 
[V:3] z8 | 
[V:4] cBAGA4 | 
[V:5] G,2C2C4 | 
[V:6] C,4z2F,2 | 
[V:1] z8 | 
[V:2] z8 | 
[V:3] z8 | 
[V:4] z2c2c4 | 
[V:5] C3B,A,G,A,2- | 
[V:6] F,4F,2F,,2- | 
[V:1] z8 | 
[V:2] z8 | 
[V:3] z8 | 
[V:4] c4c4 | 
[V:5] A,2G,F,E,2A,2- | 
[V:6] F,,G,,A,,B,,C,2A,,2 | 
[V:1] z8 | 
[V:2] z8 | 
[V:3] z8 | 
[V:4] d4c4- | 
[V:5] A,G,/F,/G,2A,4 | 
[V:6] B,,4A,,4- | 
[V:1] z8 | 
[V:2] z8 | 
[V:3] z8 | 
[V:4] c4z4 | 
[V:5] C6B,2 | 
[V:6] A,,4F,4- | 
[V:1] z8 | 
[V:2] z8 | 
[V:3] z8 | 
[V:4] z8 | 
[V:5] A,4B,4 | 
[V:6] F,2E,2D,2_E,2- | 
[V:1] z8 | 
[V:2] z8 | 
[V:3] z8 | 
[V:4] z8 | 
[V:5] G,8 | 
[V:6] E,2C,4_E,2- | 
[V:1] z8 | 
[V:2] z8 | 
[V:3] z8 | 
[V:4] z8 | 
[V:5] B,4F,3G, | 
[V:6] E,2B,,3C,D,=E, | 
[V:1] z8 | 
[V:2] z8 | 
[V:3] z8 | 
[V:4] z4c4- | 
[V:5] A,B,C4B,A, | 
[V:6] F,2F,,3G,,A,,B,, | 
[V:1] z8 | 
[V:2] z8 | 
[V:3] z8 | 
[V:4] c2B2A4 | 
[V:5] G,2F,4E,2 | 
[V:6] C,2D,2C,3B,, | 
[V:1] z8 | 
[V:2] z8 | 
[V:3] z8 | 
[V:4] B4G4 | 
[V:5] G,3F,E,2D,2 | 
[V:6] G,,4z2G,,2- | 
[V:1] z8 | 
[V:2] z8 | 
[V:3] z8 | 
[V:4] B4F3G | 
[V:5] G,4z4 | 
[V:6] G,,A,,B,,C,D,E,F,2- | 
[V:1] z8 | 
[V:2] z8 | 
[V:3] z8 | 
[V:4] ABc3BA2 | 
[V:5] z4C,4- | 
[V:6] F,G,A,F,G,2F,2- | 
[V:1] z8 | 
[V:2] z8 | 
[V:3] z8 | 
[V:4] G4F2A2- | 
[V:5] C,4D,4 | 
[V:6] F,2E,2F,4 | 
[V:1] z8 | 
[V:2] z8 | 
[V:3] z8 | 
[V:4] ABc3BA2- | 
[V:5] F,4F,2E,D, | 
[V:6] z4F,,4- | 
[V:1] z8 | 
[V:2] z8 | 
[V:3] z8 | 
[V:4] AGFED4 | 
[V:5] C,2C2B,G,B,2- | 
[V:6] F,,4G,,4 | 
[V:1] z8 | 
[V:2] z8 | 
[V:3] z8 | 
[V:4] z4F4- | 
[V:5] B,CD4CB, | 
[V:6] B,,4B,,3C, | 
[V:1] z8 | 
[V:2] z8 | 
[V:3] z8 | 
[V:4] F4G4 | 
[V:5] A,G,A,2G,2E,2 | 
[V:6] D,4G,,2C,2 | 
[V:1] z8 | 
[V:2] z8 | 
[V:3] z8 | 
[V:4] B4B4 | 
[V:5] F,2G,2D,4 | 
[V:6] B,,2G,,3A,,B,,C, | 
[V:1] z8 | 
[V:2] z8 | 
[V:3] z8 | 
[V:4] z2A4A2 | 
[V:5] z2F,4F,2 | 
[V:6] D,2D,4D,2 | 
[V:1] z8 | 
[V:2] z8 | 
[V:3] z8 | 
[V:4] A2B2cdec | 
[V:5] F,2F,2G,4 | 
[V:6] D,2D,2C,3B,,/A,,/ | 
[V:1] z8 | 
[V:2] z8 | 
[V:3] z8 | 
[V:4] d2cBA2d2- | 
[V:5] B,4F,4 | 
[V:6] G,,A,,B,,C,D,2B,,2 | 
[V:1] z8 | 
[V:2] z8 | 
[V:3] z8 | 
[V:4] dcB4A2 | 
[V:5] F,4E,4 | 
[V:6] D,4C,4 | 
[V:1] [M:3/1]z12 | 
[V:2] [M:3/1]z12 | 
[V:3] [M:3/1]z12 | 
[V:4] [M:3/1]B8z4 | 
[V:5] [M:3/1]F,6G,2A,4 | 
[V:6] [M:3/1]B,,8z4 | 
[V:1] z12 | 
[V:2] z12 | 
[V:3] z12 | 
[V:4] z12 | 
[V:5] B,4B,4A,4 | 
[V:6] B,,6C,2D,4 | 
[V:1] z12 | 
[V:2] z12 | 
[V:3] z12 | 
[V:4] B6c2d4 | 
[V:5] G,2B,4A,F,F,4 | 
[V:6] _E,4E,4D,4 | 
[V:1] z12 | 
[V:2] z12 | 
[V:3] z12 | 
[V:4] _e4_e4d4 | 
[V:5] G,6A,2B,4 | 
[V:6] C,2_E,4D,C,B,,4 | 
[V:1] z12 | 
[V:2] z12 | 
[V:3] z12 | 
[V:4] c4_e6dc | 
[V:5] A,4G,6F,2 | 
[V:6] C,8_E,4- | 
[V:1] z12 | 
[V:2] z12 | 
[V:3] z12 | 
[V:4] B4d4c4 | 
[V:5] G,2A,2B,4G,4- | 
[V:6] E,2D,2B,,4C,4 | 
[V:1] z12 | 
[V:2] z12 | 
[V:3] z12 | 
[V:4] B6A2G4 | 
[V:5] G,2F,E,D,2C,2D,2E,2 | 
[V:6] G,,4B,,6C,2 | 
[V:1] z12 | 
[V:2] z12 | 
[V:3] z12 | 
[V:4] A4B6AG | 
[V:5] F,6E,D,E,4 | 
[V:6] A,,4G,,8 | 
[V:1] z12 ||  
[V:2] z12 ||  
[V:3] z12 ||  
[V:4] A12 ||  
[V:5] F,12 ||  
[V:6] F,,12 ||  
[V:1]  [K:F] [K:clef=treble][M:2/1]G8 | 
[V:2]  [K:F] [K:clef=treble-8][M:2/1]c8 | 
[V:3]  [K:F] [K:clef=treble-8][M:2/1]c4e3f | 
[V:4]  [K:F] [K:clef=treble-8][M:2/1]z8 | 
[V:5]  [K:F] [K:clef=bass][M:2/1]G,8 | 
[V:6]  [K:F] [K:clef=bass][M:2/1]C,8 | 
[V:1] E4F4 | 
[V:2] c4A4- | 
[V:3] g4a4 | 
[V:4] z4F4 | 
[V:5] G,4F,4- | 
[V:6] C,4F,,4- | 
[V:1] C4z2c2- | 
[V:2] A4A4 | 
[V:3] z8 | 
[V:4] A3Bc4 | 
[V:5] F,2E,D,C,4 | 
[V:6] F,,2G,,2A,,4 | 
[V:1] c2BAB4 | 
[V:2] B3cd2D2 | 
[V:3] g4g4 | 
[V:4] d4z4 | 
[V:5] G,8 | 
[V:6] G,,8 | 
[V:1] c4z2G2 | 
[V:2] F4G4 | 
[V:3] a4g2g2 | 
[V:4] z4c4 | 
[V:5] C,3D,E,F,E,2 | 
[V:6] F,,4C,4 | 
[V:1] A2c4=B2 | 
[V:2] z2A2B2B2 | 
[V:3] f4g4 | 
[V:4] c4d4 | 
[V:5] C,4G,2G,2 | 
[V:6] A,,4G,,4 | 
[V:1] c4z2G2 | 
[V:2] G2c2d2d2 | 
[V:3] e4d4 | 
[V:4] c2c2B4 | 
[V:5] C,2G,3A,B,2 | 
[V:6] z2C,2G,2G,2 | 
[V:1] (3E2F2G2C4 | 
[V:2] c4z4 | 
[V:3] e4e4 | 
[V:4] c4A4 | 
[V:5] A,2G,2A,2C2- | 
[V:6] C,4z4 | 
[V:1] D4C2E2 | 
[V:2] z4z2c2 | 
[V:3] g4e4 | 
[V:4] G4A4 | 
[V:5] C2B,2C2C,2 | 
[V:6] z4A,,4 | 
[V:1] F2A4G2- | 
[V:2] A2F2G3F | 
[V:3] d2f2e4 | 
[V:4] A4c4 | 
[V:5] F,2D,2E,4 | 
[V:6] D,4C,4 | 
[V:1] G2^F2G4 | 
[V:2] D2A2B2d2- | 
[V:3] d4z4 | 
[V:4] A4G2B2 | 
[V:5] F,2D,4G,2 | 
[V:6] D,4G,,2G,,2 | 
[V:1] z4z2G2- | 
[V:2] dcc4=B2 | 
[V:3] z8 | 
[V:4] A4G4 | 
[V:5] E,2F,2D,4 | 
[V:6] A,,2F,,2G,,4 | 
[V:1] G2E2G4 | 
[V:2] c4z2cB | 
[V:3] z2c3de2 | 
[V:4] z8 | 
[V:5] C,8 | 
[V:6] G,3F,E,D,C,2 | 
[V:1] F2E2DEFG | 
[V:2] AGA2D3E | 
[V:3] d2c2d4 | 
[V:4] z4z2F2- | 
[V:5] z2C4B,2 | 
[V:6] D,2A,,2B,,3A,, | 
[V:1] A3G/F/ECF2- | 
[V:2] F2c4B2 | 
[V:3] c4z4 | 
[V:4] FGA2G2F2 | 
[V:5] A,2F,2G,2D,2 | 
[V:6] F,,4C,2D,2 | 
[V:1] F2E2F4- | 
[V:2] c3BAGF2- | 
[V:3] z4c4 | 
[V:4] G4F4 | 
[V:5] E,C,C3B,A,G, | 
[V:6] C,4F,,2F,2 | 
[V:1] F8- | 
[V:2] F2B4A2 | 
[V:3] d4c4 | 
[V:4] z8 | 
[V:5] F,8 | 
[V:6] D,2B,,2F,4 | 
[V:1] F4z2E2 | 
[V:2] B4z4 | 
[V:3] d4c4 | 
[V:4] F4G4 | 
[V:5] z2F,2E,2C,2 | 
[V:6] B,,4z4 | 
[V:1] F2D2EFGA | 
[V:2] z8 | 
[V:3] A4c4 | 
[V:4] F4G4 | 
[V:5] D,4C,4 | 
[V:6] z2F,4E,2 | 
[V:1] Bcd4cB | 
[V:2] z4B4 | 
[V:3] d4f4- | 
[V:4] F4D4 | 
[V:5] z2B,,2D,2F,2- | 
[V:6] D,3C,B,,A,,B,,2 | 
[V:1] A2c3BG2- | 
[V:2] c4c4 | 
[V:3] f2ede2g2- | 
[V:4] F4G4 | 
[V:5] F,E,C,3D,E,F, | 
[V:6] F,,4C,4 | 
[V:1] GABcd2D2 | 
[V:2] B2d3cdB | 
[V:3] g2fed2d2 | 
[V:4] B6AG | 
[V:5] G,8 | 
[V:6] G,,3A,,B,,4 | 
[V:1] F2E3CF2- | 
[V:2] c2BAG2F2 | 
[V:3] c4z4 | 
[V:4] A2c4BA | 
[V:5] C,4z2C2- | 
[V:6] A,,3B,,C,2F,,2 | 
[V:1] F2E2F4 | 
[V:2] G2C2c3B | 
[V:3] c4A4 | 
[V:4] G2G2F4 | 
[V:5] CB,G,2A,2C2- | 
[V:6] C,4z4 | 
[V:1] z8 | 
[V:2] AGA2F2A2 | 
[V:3] c6BA | 
[V:4] z4F4 | 
[V:5] C2F,3E,D,C, | 
[V:6] F,,4F,,4 | 
[V:1] z8 | 
[V:2] GABGA3B | 
[V:3] B4A4 | 
[V:4] D4F4- | 
[V:5] B,,2D,4C,2 | 
[V:6] G,,4F,,3G,, | 
[V:1] z8 | 
[V:2] cAd4c2 | 
[V:3] z8 | 
[V:4] F2EDE4 | 
[V:5] F,2G,2A,3G, | 
[V:6] A,,2B,,2A,,4 | 
[V:1] z2D2E2G2 | 
[V:2] d2A2c4 | 
[V:3] z4G4 | 
[V:4] D4z4 | 
[V:5] F,D,F,4E,2 | 
[V:6] z4z2C,2 | 
[V:1] F2A4G2- | 
[V:2] F4z2G2- | 
[V:3] A4c3d | 
[V:4] z8 | 
[V:5] D,4C,4 | 
[V:6] F,2D,2E,3F, | 
[V:1] GFGABcdB | 
[V:2] G2E2F3G | 
[V:3] e4d4 | 
[V:4] C4D4 | 
[V:5] z8 | 
[V:6] G,4F,2B,,2 | 
[V:1] c2A3BcA | 
[V:2] A3GF2E2 | 
[V:3] c4c4 | 
[V:4] F3GA4 | 
[V:5] z2C4A,2 | 
[V:6] A,,2F,,3G,,A,,F,, | 
[V:1] B2d4d2 | 
[V:2] D3EFGA2 | 
[V:3] B4z4 | 
[V:4] G4F4 | 
[V:5] D2CB,A,2F,2 | 
[V:6] G,,A,,B,,C,D,4 | 
[V:1] d4G2c2- | 
[V:2] D2d2c3B | 
[V:3] d4e2g2- | 
[V:4] F4E4 | 
[V:5] B,4z2G,2 | 
[V:6] B,,4C,4- | 
[V:1] cBG2B4 | 
[V:2] G2c2B3A | 
[V:3] gfe4d2 | 
[V:4] z4G4 | 
[V:5] E,2C,2(3G,2A,2B,2 | 
[V:6] C,4z4 | 
[V:1] A4z4 | 
[V:2] F3EC2c2 | 
[V:3] f4e4 | 
[V:4] A2c3BA2- | 
[V:5] C2A,3G,E,2 | 
[V:6] F,,3G,,A,,2C,2 | 
[V:1] z2B3AFG | 
[V:2] d2B2d4 | 
[V:3] d4z4 | 
[V:4] A2G2B4 | 
[V:5] F,2D,3C,D,E, | 
[V:6] B,,3A,,G,,2B,,2 | 
[V:1] A2F3E/D/E2 | 
[V:2] c2c3BG2 | 
[V:3] c8 | 
[V:4] A4G4 | 
[V:5] F,4C,2C2- | 
[V:6] F,,G,,A,,B,,C,4 | 
[V:1] F4z2B2 | 
[V:2] A4B4 | 
[V:3] c4d4 | 
[V:4] z4F4- | 
[V:5] CB,A,G,F,E,D,2- | 
[V:6] F,,2F,E,D,C,B,,2- | 
[V:1] B2B2A2A2 | 
[V:2] z2F2A2c2- | 
[V:3] f8 | 
[V:4] F4F4 | 
[V:5] D,2C,B,,C,3D, | 
[V:6] B,,2A,,G,,F,,4 | 
[V:1] G6FE | 
[V:2] cBG3AB2- | 
[V:3] e4d4- | 
[V:4] G4B4- | 
[V:5] E,D,E,F,G,4- | 
[V:6] C,4z4 | 
[V:1] D2G3FF2- | 
[V:2] BAGFE2F2 | 
[V:3] d4c4- | 
[V:4] B4A4 | 
[V:5] G,4C,4 | 
[V:6] G,,4A,,2F,,2 | 
[V:1] F2EDE4 | 
[V:2] G4c4- | 
[V:3] c4z4 | 
[V:4] G8 | 
[V:5] z4G,4 | 
[V:6] C,8 | 
[V:1] F8- | 
[V:2] c2A3GF2 | 
[V:3] c4d2f2- | 
[V:4] F8- | 
[V:5] A,4D,3E, | 
[V:6] z2F,3E,D,2- | 
[V:1] F8- | 
[V:2] A2c2B4 | 
[V:3] f2e2d4 | 
[V:4] F8- | 
[V:5] F,2C,2D,3E, | 
[V:6] D,C,A,,2B,,4 | 
[V:1] F8 |]  
[V:2] A8 |]  
[V:3] c8 |]  
[V:4] F8 |]  
[V:5] F,4C,4 |]  
[V:6] F,,8 |]  



